style-guide/assets/wds-icons-refresh-tiny.svg

<svg viewBox="0 0 12 12" xmlns="http://www.w3.org/2000/svg">
  <path d="M11 0a1 1 0 0 0-1 1v.521A5.974 5.974 0 0 0 8.532.558C6.637-.327 4.239-.118 2.52 1.11A5.987 5.987 0 0 0 0 6c0 1.266.389 2.472 1.111 3.48A5.987 5.987 0 0 0 6 12a5.963 5.963 0 0 0 4.243-1.757 1 1 0 0 0-1.414-1.414A3.971 3.971 0 0 1 5.744 9.99l-.157-.014a3.979 3.979 0 0 1-3.564-3.583 4.03 4.03 0 0 1 .101-1.378 3.979 3.979 0 0 1 1.148-1.941 4.002 4.002 0 0 1 2.335-1.052l.123-.011c.176-.012.352-.013.528-.001l.151.014a3.97 3.97 0 0 1 2.42 1.147.946.946 0 0 0 .074.068c.22.231.409.487.566.761H8a1 1 0 0 0 0 2h2.879a.254.254 0 0 0 .039 0H11a1 1 0 0 0 1-1V1a1 1 0 0 0-1-1" fill-rule="evenodd"/>
</svg>

<svg xmlns="http://www.w3.org/2000/svg" xmlns:xlink="http://www.w3.org/1999/xlink" width="12" height="12" viewBox="0 0 12 12">
  <defs>
    <path id="reload-a" d="M11,0 C10.448,0 10,0.448 10,1 L10,1.521 C9.554,1.124 9.06,0.802 8.532,0.558 C6.637,-0.327 4.239,-0.118 2.52,1.11 C1.581,1.778 0.843,2.71 0.417,3.793 C0.143,4.486 0,5.231 0,6 C0,7.266 0.389,8.472 1.111,9.48 C1.779,10.419 2.709,11.157 3.793,11.583 C4.486,11.856 5.232,12 6,12 C7.603,12 9.109,11.376 10.243,10.243 C10.633,9.853 10.633,9.22 10.243,8.829 C9.852,8.438 9.219,8.438 8.829,8.829 C7.984,9.674 6.858,10.064 5.744,9.99 C5.693,9.986 5.642,9.981 5.587,9.976 C5.392,9.956 5.201,9.923 5.015,9.876 C4.339,9.706 3.699,9.356 3.171,8.829 C3.138,8.796 3.106,8.762 3.074,8.728 C2.495,8.104 2.111,7.294 2.023,6.393 C2.018,6.352 2.014,6.311 2.011,6.27 C1.999,6.095 1.999,5.919 2.01,5.743 C2.014,5.693 2.019,5.642 2.025,5.587 C2.044,5.392 2.078,5.201 2.124,5.015 C2.294,4.339 2.644,3.699 3.171,3.171 C3.205,3.138 3.238,3.106 3.272,3.074 C3.895,2.495 4.706,2.111 5.607,2.022 L5.73,2.011 C5.906,1.999 6.082,1.998 6.258,2.01 C6.307,2.014 6.356,2.019 6.409,2.024 C6.718,2.056 7.018,2.122 7.305,2.22 C7.862,2.41 8.385,2.728 8.829,3.171 C8.853,3.195 8.877,3.218 8.903,3.239 C9.123,3.47 9.312,3.726 9.469,4 L8,4 C7.448,4 7,4.448 7,5 C7,5.552 7.448,6 8,6 L10.879,6 C10.893,6.001 10.906,6.001 10.918,6 L11,6 C11.552,6 12,5.552 12,5 L12,1 C12,0.448 11.552,0 11,0"/>
  </defs>
  <use fill-rule="evenodd" xlink:href="#reload-a"/>
</svg>
